build/images/common/phone.svg

<svg width="27" height="27" viewBox="0 0 27 27" fill="none" xmlns="http://www.w3.org/2000/svg">
<g clip-path="url(#clip0_13_4094)">
<path d="M7.75364 22.5762C7.72042 24.1633 7.53503 25.9768 8.90133 26.4145C10.2408 26.8554 11.0178 25.7667 12.7645 23.5567C19.2778 24.0062 25.027 22.1548 25.7964 15.5172C26.4854 9.61632 25.5949 5.20173 23.3027 3.10115C19.9411 -0.155351 8.99885 -0.611434 4.99316 3.25932C3.34395 4.99373 2.54024 7.53848 2.46523 11.2684C2.40415 14.3147 2.27984 20.5439 7.75364 22.5762ZM4.07265 11.302C4.13909 8.0054 4.7992 5.80732 6.12693 4.40982C9.47143 1.17932 19.3828 1.55307 22.2065 4.29173C24.0914 6.01748 24.8191 10.0399 24.2007 15.3276C23.6392 20.1766 20.5508 21.0043 19.3881 21.3152C16.9802 21.9577 14.6848 22.0974 12.4827 21.9046C11.9029 21.8417 11.6747 22.3964 11.4636 22.5979C10.4145 23.873 9.65789 24.7938 9.46179 24.9173C9.31712 24.6996 9.33962 23.6693 9.35677 22.8417C9.30426 22.469 9.63432 21.4387 8.77381 21.2058C3.90333 19.752 4.01371 14.2562 4.07265 11.302Z" fill="white"/>
<path d="M7.14653 9.14499C8.00489 10.8751 8.84182 13.9322 12.0556 16.5929C13.1711 17.5224 16.5103 19.6674 17.8176 19.6674C19.6855 19.6674 21.8191 16.6969 20.2566 15.372C19.5537 14.6776 18.5646 13.994 17.9302 13.6181C17.9291 13.617 17.928 13.617 17.928 13.617C16.281 12.6539 15.3787 14.4262 15.2715 14.4956C12.8582 16.6796 9.88557 12.8857 11.9688 11.0506C12.2249 10.7288 13.753 9.98349 12.8464 8.28915C12.0427 6.81907 11.5123 6.31315 11.2122 5.8939C9.62946 3.89624 6.20458 7.21449 7.14653 9.14499ZM16.9775 14.9657C17.0868 15.0351 18.0395 15.4565 19.1765 16.5756C19.3211 16.698 18.3567 18.115 17.7426 18.0337C17.6215 17.9785 16.746 17.7672 14.8654 16.6048C16.6507 15.9917 16.6357 15.0307 16.9775 14.9657ZM9.83414 6.92199C9.90058 6.88624 9.93487 6.88407 9.93165 6.8754C10.2403 7.30982 10.7011 7.72365 11.4362 9.06807C11.6312 9.43315 11.1501 9.57507 10.8393 9.89574C10.3967 10.2922 10.072 10.7646 9.87271 11.2857C9.21474 10.0301 8.92005 9.12549 8.62 8.49282C8.49998 7.91649 9.32405 7.21665 9.83414 6.92199Z" fill="white"/>
<path d="M14.7019 9.76242C14.7137 9.7635 15.8796 9.91408 16.0886 11.1827C16.2654 12.2595 17.8471 11.9703 17.6735 10.9162C17.3488 8.94558 15.7082 8.24359 14.8841 8.14825C13.8285 8.028 13.6474 9.63892 14.7019 9.76242Z" fill="white"/>
<path d="M13.8648 6.25917C13.8831 6.25917 16.4131 6.21367 18.0602 7.99467C19.6869 9.75401 19.3279 12.3118 19.3247 12.3345C19.1608 13.3886 20.7446 13.6681 20.9118 12.5869C20.9332 12.4515 21.4058 9.23292 19.2347 6.88426C17.0797 4.55292 13.9452 4.62551 13.8155 4.63417C12.7171 4.67101 12.85 6.34367 13.8648 6.25917Z" fill="white"/>
</g>
<defs>
<clipPath id="clip0_13_4094">
<rect width="25.7187" height="26" fill="white" transform="translate(0.972168 0.5)"/>
</clipPath>
</defs>
</svg>

<svg width="27" height="27" fill="none" xmlns="http://www.w3.org/2000/svg"><g clip-path="url(#clip0_13_4094)" fill="#fff"><path d="M7.754 22.576c-.034 1.587-.219 3.4 1.147 3.838 1.34.441 2.117-.647 3.864-2.857 6.513.45 12.262-1.402 13.031-8.04.69-5.9-.201-10.315-2.493-12.416C19.94-.155 8.999-.61 4.993 3.26c-1.65 1.735-2.453 4.28-2.528 8.01-.06 3.046-.185 9.275 5.289 11.307zM4.073 11.302c.066-3.297.726-5.495 2.054-6.892 3.344-3.23 13.256-2.857 16.08-.118 1.884 1.725 2.612 5.748 1.994 11.036-.562 4.849-3.65 5.676-4.813 5.987a19.786 19.786 0 01-6.905.59c-.58-.063-.808.491-1.02.693-1.048 1.275-1.805 2.196-2.001 2.32-.145-.218-.122-1.249-.105-2.076-.053-.373.277-1.403-.583-1.636-4.87-1.454-4.76-6.95-4.701-9.904z"/><path d="M7.147 9.145c.858 1.73 1.695 4.787 4.909 7.448 1.115.93 4.454 3.074 5.762 3.074 1.867 0 4.001-2.97 2.439-4.295-.703-.694-1.692-1.378-2.327-1.754l-.002-.001c-1.647-.963-2.55.81-2.657.879-2.413 2.184-5.385-1.61-3.302-3.445.256-.322 1.784-1.068.877-2.762-.803-1.47-1.334-1.976-1.634-2.395-1.583-1.998-5.007 1.32-4.065 3.251zm9.83 5.82c.11.07 1.063.492 2.2 1.61.144.123-.82 1.54-1.434 1.459-.121-.055-.997-.267-2.878-1.43 1.786-.612 1.77-1.573 2.112-1.638zM9.834 6.923c.067-.036.1-.038.098-.047.308.435.77.849 1.504 2.193.195.365-.286.507-.597.828a3.577 3.577 0 00-.966 1.39c-.658-1.256-.953-2.16-1.253-2.793-.12-.577.704-1.276 1.214-1.571z"/><path d="M14.702 9.762c.012.002 1.178.152 1.387 1.42.176 1.077 1.758.788 1.585-.266-.325-1.97-1.966-2.672-2.79-2.768-1.056-.12-1.237 1.49-.182 1.614z"/><path d="M13.865 6.26c.018 0 2.548-.046 4.195 1.735 1.627 1.759 1.268 4.317 1.265 4.34-.164 1.054 1.42 1.333 1.587.252.021-.136.494-3.354-1.677-5.703-2.155-2.331-5.29-2.258-5.42-2.25-1.098.037-.965 1.71.05 1.625z"/></g><defs><clipPath id="clip0_13_4094"><path fill="#fff" transform="translate(.972 .5)" d="M0 0h25.719v26H0z"/></clipPath></defs></svg>
